svg/thousandeyes.svg

<?xml version="1.0" encoding="UTF-8"?>
<svg xmlns="http://www.w3.org/2000/svg" xmlns:xlink="http://www.w3.org/1999/xlink" width="56.949001" height="32" viewBox="0 0 56.949001 32">
<path fill-rule="nonzero" fill="rgb(94.509804%, 36.862746%, 13.333334%)" fill-opacity="1" d="M 30.753906 23.703125 C 33.953125 21.910156 37.804688 19.527344 40.949219 15.566406 C 37.859375 11.714844 33.519531 9.4375 30.320312 7.703125 C 38.019531 6.019531 44.746094 13.613281 44.746094 13.613281 L 46.535156 15.621094 L 44.746094 17.628906 C 37.75 25.167969 30.753906 23.703125 30.753906 23.703125 "/>
<path fill-rule="nonzero" fill="rgb(10.980392%, 18.82353%, 23.137255%)" fill-opacity="1" d="M 31.347656 15.675781 C 31.347656 16.640625 30.964844 17.5625 30.285156 18.246094 C 29.601562 18.925781 28.679688 19.308594 27.714844 19.308594 C 26.75 19.308594 25.828125 18.925781 25.144531 18.246094 C 24.464844 17.5625 24.082031 16.640625 24.082031 15.675781 C 24.082031 13.667969 25.707031 12.039062 27.714844 12.039062 C 29.722656 12.09375 31.347656 13.722656 31.347656 15.675781 "/>
<path fill-rule="nonzero" fill="rgb(94.509804%, 36.862746%, 13.333334%)" fill-opacity="1" d="M 15.1875 15.566406 C 17.574219 18.710938 24.242188 26.414062 32.757812 26.414062 C 38.617188 26.414062 44.421875 22.78125 50.0625 15.566406 C 44.421875 8.570312 38.5625 4.988281 32.757812 4.988281 C 24.242188 4.988281 17.574219 12.472656 15.1875 15.566406 M 32.707031 31.347656 C 19.308594 31.347656 10.414062 17.464844 10.035156 16.867188 L 9.167969 15.511719 L 10.035156 14.15625 C 10.414062 13.558594 19.363281 0 32.707031 0 C 40.570312 0 48.109375 4.71875 55.160156 13.992188 L 56.242188 15.457031 L 55.160156 16.921875 C 48.164062 26.523438 40.625 31.347656 32.707031 31.347656 M 22.507812 31.347656 C 9.492188 30.96875 1.085938 17.355469 0.703125 16.757812 L 0 15.402344 L 0.8125 14.101562 C 1.191406 13.558594 9.4375 0.542969 22.398438 0.0546875 C 12.3125 4.664062 5.316406 15.675781 5.316406 15.675781 C 5.316406 15.675781 11.226562 25.492188 22.507812 31.347656 "/>
</svg>

<svg role="img" viewBox="0 0 56.949 32" xmlns="http://www.w3.org/2000/svg"><path d="M30.754 23.703c3.2-1.793 7.05-4.176 10.195-8.137-3.09-3.851-7.43-6.129-10.629-7.863 7.7-1.683 14.426 5.91 14.426 5.91l1.79 2.008-1.79 2.008c-6.996 7.539-13.992 6.074-13.992 6.074" fill="rgb(94.509804%, 36.862746%, 13.333334%)"/><path d="M31.348 15.676c0 .965-.383 1.886-1.063 2.57a3.643 3.643 0 0 1-5.14 0 3.64 3.64 0 0 1-1.063-2.57 3.634 3.634 0 0 1 3.633-3.637c2.008.055 3.633 1.684 3.633 3.637" fill="rgb(10.980392%, 18.82353%, 23.137255%)"/><path d="M15.188 15.566c2.386 3.145 9.054 10.848 17.57 10.848 5.86 0 11.664-3.633 17.304-10.848-5.64-6.996-11.5-10.578-17.304-10.578-8.516 0-15.184 7.485-17.57 10.578m17.519 15.782c-13.398 0-22.293-13.883-22.672-14.48l-.867-1.356.867-1.356C10.415 13.56 19.363 0 32.707 0 40.57 0 48.109 4.719 55.16 13.992l1.082 1.465-1.082 1.465c-6.996 9.601-14.535 14.426-22.453 14.426m-10.2 0C9.493 30.968 1.087 17.355.704 16.758L0 15.402l.813-1.3C1.19 13.559 9.438.543 22.398.055c-10.085 4.61-17.082 15.62-17.082 15.62s5.91 9.817 17.192 15.673" fill="rgb(94.509804%, 36.862746%, 13.333334%)"/></svg>
